app/dist/common/images/bain-capital-specialty-finance.svg

<svg height="18" viewBox="0 0 18 18" width="18" xmlns="http://www.w3.org/2000/svg"><path d="m0 0h18v18h-18z" fill="#f0f3fa"/><path d="m13 5h-8l5.34 2.7 2.66-1.37z" fill="#1c2156"/><path d="m5 7.68v-2.68l5.3 2.68-2.64 1.32z" fill="#1ca6df"/><path d="m7.66 9 5.34-2.66v5.36z" fill="#abcae9"/><path d="m7.68 9-2.68 1.35v2.65l5.32-2.66z" fill="#e52823"/><path d="m13 13h-8l5.3-2.66 2.7 1.31z" fill="#1c2156"/></svg>

<!-- by TradingView --><svg width="18" height="18" viewBox="0 0 18 18" xmlns="http://www.w3.org/2000/svg"><path fill="#F0F3FA" d="M0 0h18v18H0z"/><path d="M13 5H5l5.34 2.7L13 6.33V5Z" fill="#1C2156"/><path d="M5 7.68V5l5.3 2.68L7.66 9 5 7.68Z" fill="#1CA6DF"/><path d="M7.66 9 13 6.34v5.36L7.66 9Z" fill="#ABCAE9"/><path d="M7.68 9 5 10.35V13l5.32-2.66L7.68 9Z" fill="#E52823"/><path d="M13 13H5l5.3-2.66 2.7 1.31V13Z" fill="#1C2156"/></svg>
